assets/svgs/menu_blog.svg

<svg viewBox="0 0 1024 1024" xmlns="http://www.w3.org/2000/svg"><path d="m483.34848 495.77984h-327.7824v-327.76192h327.76192v327.76192zm-276.25472-51.52768h224.70656v-224.70656h-224.70656zm671.29344 51.52768h-327.7824v-327.76192h327.7824zm-276.2752-51.52768h224.72704v-224.70656h-224.72704zm-118.04672 442.2656h-327.7824v-327.76192h327.76192v327.76192zm-276.25472-51.52768h224.72704v-224.70656h-224.72704zm671.29344 51.52768h-327.7824v-327.76192h327.7824zm-276.25472-51.52768h224.72704v-224.70656h-224.72704z"/></svg>

<svg xmlns="http://www.w3.org/2000/svg" viewBox="0 0 1024 1024" version="1.1"><path d="M483.34848 495.77984H155.56608V168.01792H483.328v327.76192z m-276.25472-51.52768h224.70656V219.5456H207.09376v224.70656zM878.3872 495.77984H550.6048V168.01792H878.3872v327.76192zM602.112 444.25216h224.72704V219.5456H602.112v224.70656zM484.06528 886.51776H156.28288V558.75584h327.76192v327.76192z m-276.25472-51.52768H432.5376V610.28352H207.81056v224.70656zM879.104 886.51776H551.3216V558.75584h327.7824v327.76192z m-276.25472-51.52768h224.72704V610.28352H602.84928v224.70656z" p-id="11402"></path></svg>
